X: 0037
T: \"Alvdalens Stekl\aat efter Isak Anders
C: C.G.
%R: g\aangl\aat
B: Paul B\"ackstr\"om's "L\aatar fr\aan Dalarna" collection" 1974
Z: 2022 John Chambers <jc:trillian.mit.edu>
M: 2/4
L: 1/16
P: K.E.F.24 
K: A
% - - - - - - - - - -
|:\
e(fec) A2A2 | (efed) (cdeg) | (Tf2ed) (Tc2Ac) | (TB2AG) B2A2 | "^>"[A4D4] "^>"[A4C4] :|
||:\
(efe^d) e2g2 | (a2ab) (Ta2=ge) | (=g2ga) (faf=d) | "^>"e4 "^>"[e4A4] | (efe^d) e2^g2 |
(a2ab) (Ta2=ge) | (=g2ga) (faf=d) | (efec) A2B2 | (=c2ec) (TB2AG) | "^>"A4 H"^>"A4 :|
% - - - - - - - - - -
%%text Jmf. S.L. nr 351,370,383,387,414,540,609?,648
